X:75
M:C|
L:1/8
K:A
||g|aece aecA|BF F/F/F GEEg|aece aecA|BABc A/A/A Ag|
aece aecA|BF F/F/F GEEF|A,2 ef edcA|BABc A/A/A A|]

